flags/hmong.svg

<svg width="512" height="512" viewBox="0 0 512 512" fill="none" xmlns="http://www.w3.org/2000/svg">
<rect width="512" height="512" fill="var(--flag-palette-bright-red, #d80027)"/>
<path d="M256 256C226.296 256 197.808 267.8 176.804 288.804C155.8 309.808 144 338.296 144 368C144 397.704 155.8 426.192 176.804 447.196C197.808 468.2 226.296 480 256 480C285.704 480 314.192 468.2 335.196 447.196C356.2 426.192 368 397.704 368 368C368 338.296 356.2 309.808 335.196 288.804C314.192 267.8 285.704 256 256 256Z" fill="var(--flag-palette-yellow, #ffda44)"/>
<path d="M228.3 42V74L200.6 90L228.3 106V138L256 122L283.7 138V106L311.4 90L283.7 74V42L256 58L228.3 42Z" fill="var(--flag-palette-yellow, #ffda44)"/>
<path d="M420 322L395 341L385 362L413 431L379 465L433 480L414 462L438 445L462 462L443 480L497 465L463 431L491 362L481 341L456 322L473 359L450 383L453 359L438 334L423 359L426 383L403 359L420 322Z" fill="var(--flag-palette-yellow, #ffda44)"/>
<path d="M420 32L395 51L385 72L397 105L383 122L388 149L400 123L413 141L379 175L433 190L414 172L438 155L462 172L443 190L497 175L463 141L476 123L488 149L493 122L479 105L491 72L481 51L456 32L473 69L450 93L453 69L438 44L423 69L426 93L403 69L420 32Z" fill="var(--flag-palette-yellow, #ffda44)"/>
<path d="M56 322L31 341L21 362L49 431L15 465L69 480L50 462L74 445L98 462L79 480L133 465L99 431L127 362L117 341L92 322L109 359L86 383L89 359L74 334L59 359L62 383L39 359L56 322Z" fill="var(--flag-palette-yellow, #ffda44)"/>
<path d="M56 32L31 51L21 72L33 105L19 122L24 149L36 123L49 141L15 175L69 190L50 172L74 155L98 172L79 190L133 175L99 141L112 123L124 149L129 122L115 105L127 72L117 51L92 32L109 69L86 93L89 69L74 44L59 69L62 93L39 69L56 32Z" fill="var(--flag-palette-yellow, #ffda44)"/>
</svg>

<svg xmlns="http://www.w3.org/2000/svg" width="512" height="512" fill="none"><path fill="var(--flag-palette-bright-red, #d80027)" d="M0 0h512v512H0z"/><path fill="var(--flag-palette-yellow, #ffda44)" d="M256 256a112 112 0 1 0 0 224 112 112 0 0 0 0-224M228.3 42v32l-27.7 16 27.7 16v32l27.7-16 27.7 16v-32l27.7-16-27.7-16V42L256 58zM420 322l-25 19-10 21 28 69-34 34 54 15-19-18 24-17 24 17-19 18 54-15-34-34 28-69-10-21-25-19 17 37-23 24 3-24-15-25-15 25 3 24-23-24zm0-290-25 19-10 21 12 33-14 17 5 27 12-26 13 18-34 34 54 15-19-18 24-17 24 17-19 18 54-15-34-34 13-18 12 26 5-27-14-17 12-33-10-21-25-19 17 37-23 24 3-24-15-25-15 25 3 24-23-24zM56 322l-25 19-10 21 28 69-34 34 54 15-19-18 24-17 24 17-19 18 54-15-34-34 28-69-10-21-25-19 17 37-23 24 3-24-15-25-15 25 3 24-23-24zm0-290L31 51 21 72l12 33-14 17 5 27 12-26 13 18-34 34 54 15-19-18 24-17 24 17-19 18 54-15-34-34 13-18 12 26 5-27-14-17 12-33-10-21-25-19 17 37-23 24 3-24-15-25-15 25 3 24-23-24z"/></svg>
